X: 141
T: Ways of the World
C: R-69
C: Old-Time
M: C|
Z: Transcribed to abc by Mary Lou Knack
R: reel
K: D
"D"ABde f2f2| edBd A4| ABde "Bm7"f2a2| "Em"e3f "A"e4|
"D"ABde fedf| edBd A2dB| A2F2 "A7"EF2E|1 "D"D6 A2 :|2 "D"D6 |]
|:\
FE| "D"DEFG A2F2| A3B A2FE| DEFG "A7"AFE2| "D"D6 FE|
    "D"DEFG A2F2| A3B A2FE| DEFG "A7"AFE2|1 "D"D6 :|2 "D"D6 z2 |]
%%text 9/1/98.  Arr. A. Block, E. Poor  (Thanks, Matt)
% ---------- page 73 ----------
